!!!COM: Palestrina, Giovanni Perluigi da
!!!OPR: Missa Virtute magna
!!!OTL: Agnus I
**kern	**kern	**kern	**kern
*Ibass	*Itenor	*Icalto	*Icant
!Bassus	!Tenor	!Altus	!Cantus
*clefF4	*clefGv2	*clefG2	*clefG2
*k[]	*k[]	*k[]	*k[]
*G:mix	*G:mix	*G:mix	*G:mix
*M4/2	*M4/2	*M4/2	*M4/2
=1	=1	=1	=1
0r	0r	1c	1r
.	.	[1g	1g
=2	=2	=2	=2
0r	0r	2g]	1.dd
.	.	2g	.
.	.	1f	.
.	.	.	2dd
=3	=3	=3	=3
0r	0r	1e	1cc
.	.	[1g	1b
=4	=4	=4	=4
0r	0r	2g]	1.dd
.	.	4f	.
.	.	4e	.
.	.	2d	.
.	.	2e	4cc
.	.	.	4b
=5	=5	=5	=5
0r	0r	2f	2a
.	.	1e	2b
.	.	.	2cc
.	.	4d	[2b
.	.	4c	.
=6	=6	=6	=6
0r	1G	2d	2b]
.	.	1g	4a
.	.	.	4g
.	[1d	.	[1a
.	.	4f	.
.	.	4e	.
=7	=7	=7	=7
1r	2d]	2f	2a]
.	2d	2d	2b
1C	1c	1e	1cc
=8	=8	=8	=8
1.G	2B	4d	1dd
.	.	4c	.
.	1d	4B	.
.	.	4A	.
.	.	2B	1g
2G	4c	[2e	.
.	4B	.	.
=9	=9	=9	=9
1F	1A	2e]	1a
.	.	2d	.
1E	2B	1e	[1g
.	[2c	.	.
=10	=10	=10	=10
1.G	2c]	0d	1g]
.	4B	.	.
.	4A	.	.
.	2B	.	1r
4F	[2d	.	.
4E	.	.	.
=11	=11	=11	=11
2D	2d]	1r	0r
2E	4c	.	.
.	4B	.	.
1F	2A	1c	.
.	[2c	.	.
=12	=12	=12	=12
1.E	2c]	1.g	0r
.	4B	.	.
.	4A	.	.
.	2G	.	.
4D	[2c	2g	.
4C	.	.	.
=13	=13	=13	=13
1D	2c]	1f	1r
.	2B	.	.
2C	1c	1e	1g
[2c	.	.	.
=14	=14	=14	=14
2c]	0G	2r	1.dd
2B	.	2.g	.
2G	.	.	.
.	.	4f	.
2B	.	2d	2dd
=15	=15	=15	=15
1A	0r	2e	1cc
.	.	2f	.
1G	.	2.g	2b
.	.	.	[2dd
.	.	4f	.
=16	=16	=16	=16
0r	2r	4d	4dd]
.	.	4e	4cc
.	2.d	2.f	2a
.	.	.	2b
.	4c	4g	.
.	2A	[2a	2cc
=17	=17	=17	=17
0r	2B	4a]	2dd
.	.	4g	.
.	2c	2g	2.ee
.	1d	2f	.
.	.	.	4dd
.	.	4e	[2dd
.	.	4d	.
=18	=18	=18	=18
1r	1A	1e	2dd]
.	.	.	2cc#
2r	2B	2d	2.dd
[2G	2G	[2g	.
.	.	.	4cc
=19	=19	=19	=19
4G]	2.d	2g]	2b
4F	.	.	.
2D	.	2f	2a
.	4c	.	.
2E	2B	2e	2g
2F	2A	4d	[2a
.	.	4c	.
=20	=20	=20	=20
1G	1B	2e	4a]
.	.	.	4g
.	.	2d	1g
1D	1A	[1d	.
.	.	.	2f#
=21	=21	=21	=21
2r	1G	1d_	2g
2G	.	.	1b
1G	1r	1d_	.
.	.	.	4a
.	.	.	4g
=22	=22	=22	=22
2F	2r	1d]	1a
2D	2d	.	.
2F	1d	1r	1r
2G	.	.	.
=23	=23	=23	=23
2.A	2c	1r	0r
.	2A	.	.
4G	.	.	.
2A	2c	2r	.
2B	2d	2g	.
=24	=24	=24	=24
1c	1e	1g	1r
2.d	2d	2f	2r
.	[2f	2d	2dd
4c	.	.	.
=25	=25	=25	=25
1B-	2f]	2f	1dd
.	4e	2g	.
.	4d	.	.
1A	1e	[1a	2cc
.	.	.	2a
=26	=26	=26	=26
0r	1r	2a]	2cc
.	.	4g	2dd
.	.	4f	.
.	2r	2g	2ee
.	2d	2a	[2ff
=27	=27	=27	=27
0r	1d	1f	2ff]
.	.	.	4ee
.	.	.	4dd
.	2c	2g	[1ee
.	2A	2a	.
=28	=28	=28	=28
0r	2c	2e	2ee]
.	2d	2.a	4dd
.	.	.	4cc
.	1e	.	2b
.	.	4g	.
.	.	2g	[2cc
=29	=29	=29	=29
2r	1d	2f#	2cc]
2G	.	2g	4b
.	.	.	4a
1G	2r	2.d	1b
.	2d	.	.
.	.	4e	.
=30	=30	=30	=30
2F	1d	0f	0a
2D	.	.	.
2.F	2c	.	.
.	2A	.	.
4G	.	.	.
=31	=31	=31	=31
4A	2.c	1e	1r
4G	.	.	.
4A	.	.	.
4B	4d	.	.
2c	2e	1r	2r
[2d	[2f	.	2a
=32	=32	=32	=32
2d]	4f]	1r	1a
.	4e	.	.
2A	2c	.	.
[1B-	2d	2r	2f
.	[2f	2d	2d
=33	=33	=33	=33
1B-]	2f]	1d	2f
.	4e	.	2g
.	4d	.	.
1A	1e	2c	2.a
.	.	2A	.
.	.	.	4g
=34	=34	=34	=34
1r	1A	2.c	4a
.	.	.	4b
.	.	.	1cc
.	.	4d	.
2r	1r	4e	.
.	.	4f	.
[2G	.	2g	4b-
.	.	.	4a
=35	=35	=35	=35
2G]	1r	2d	2b-
2F	.	1f	1a
2B-	2r	.	.
2B-	[2d	4e	2g
.	.	4d	.
=36	=36	=36	=36
1A	2d]	2f	0a
.	2c	2e	.
4D	2f	1d	.
4E	.	.	.
4F	2f	.	.
4G	.	.	.
=37	=37	=37	=37
4A	1.e	2.c	0r
4G	.	.	.
4A	.	.	.
4B	.	4d	.
2c	.	1e	.
2A	4A	.	.
.	4B	.	.
=38	=38	=38	=38
2.c	4c	0r	2r
.	4d	.	.
.	1e	.	1g
4B	.	.	.
1A	.	.	.
.	4d	.	2f
.	4c	.	.
=39	=39	=39	=39
1G	2.d	2r	2b-
.	.	1d	2b-
.	4e	.	.
1A	2f	.	1a
.	2e	2c	.
=40	=40	=40	=40
0r	2r	1f	4d
.	.	.	4e
.	1d	.	4f
.	.	.	4g
.	.	2f	4a
.	.	.	4b
.	2c	2e	[2cc
=41	=41	=41	=41
0r	2f	2A	2cc]
.	2f	2.a	4b
.	.	.	4a
.	1e	.	2b
.	.	4g	.
.	.	[2g	2g
=42	=42	=42	=42
1r	1d	2g]	1a
.	.	2f#	.
2r	4G	2.g	1g
.	4A	.	.
[2G	4B	.	.
.	4c	4f	.
=43	=43	=43	=43
2G]	4d	2g	0r
.	4e	.	.
2F	2.f	2.a	.
2B-	.	.	.
.	4e	4g	.
2B-	[2d	2g	.
=44	=44	=44	=44
1A	4d]	4f	1r
.	4c	4e	.
.	1c	4e	.
.	.	8d	.
.	.	8c	.
1G	.	1d	2r
.	2B	.	[2dd
=45	=45	=45	=45
2.F	2A	0r	2dd]
.	1c	.	2cc
4E	.	.	.
1D	.	.	2ff
.	2B	.	2ff
=46	=46	=46	=46
1C	1c	2r	1ee
.	.	1g	.
1r	1r	.	2.dd
.	.	2f	.
.	.	.	4cc
=47	=47	=47	=47
0r	2r	2b-	4dd
.	.	.	4ee
.	1d	2b-	1ff
.	.	1a	.
.	2c	.	2ee
=48	=48	=48	=48
0r	2f	2d	2dd
.	2f	2.a	2.cc
.	1e	.	.
.	.	4g	4b
.	.	[2g	4b
.	.	.	8a
.	.	.	8g
=49	=49	=49	=49
2r	1.d	2g]	2.a
1D	.	2f	.
.	.	.	4g
.	.	2d	4a
.	.	.	4b
2C	2G	2e	[2cc
=50	=50	=50	=50
2F	2A	2.c	4cc]
.	.	.	4b
2F	2.c	.	2.a
.	.	4d	.
1E	.	2e	.
.	4B	.	4g
.	2G	2c	[2g
=51	=51	=51	=51
0D	0A	0d	2g]
.	.	.	4f
.	.	.	4e
.	.	.	1f#
=52	=52	=52	=52
[0G	[0G	[0d	[0g
=53	=53	=53	=53
0G]	0G]	0d]	0g]
==	==	==	==
*-	*-	*-	*-
!!!CDT: 1525/^1526/-1594/2/2
!!!OCY: Italia
!!!AGN: Mass (Parody)
!!!AST: renaissance, vocal
!!!ASW: Motet 1532 (Lasson)
!!!PWK: Masses, Book I
!!!RNB: Cadence finals: D
!!!YOR: Le Opere Complete, v. 1, p. 62
!!!YOO: Rome, Italy: Fratelli Scalera
!!!END: 1992//
!!!EED: John Miller
!!!YEC: Copyright 2000, John Miller
!!!YEN: United States of America
!!!YEM: Rights to all derivative electronic formats reserved.
!!!YEM: Refer to licensing agreement for further details.
!!!YEM: This file must be accompanied by the licensing agreement.
!!!YEM: A copy of the licensing agreement may be found at http://www.music-cog.ohio-state.edu/HumdrumDatabases/Palestrina/license.txt
!!!EMD: converted to Humdrum by Bret Aarden
